X: 1
T: London Lasses
R: reel
M: 4/4
L: 1/8
K: Gmaj
G3 B d2 Bd | eaag eg g2 | G3 B dGBd | egdB AGEF |
G3 B d2 Bd | eaag efga | bgag egfa |1 gedB AGED :|2 gedB AGEF ||
g2 fg edBe | dG G2 dGBd | g2 fg efge | dBGA BA A2 |
g2 fg efge | dB B2 dega | bgag egfa |1 gedB AGED :|2 gedB AGEF ||


Tune 2273	Setting 15641

